X:020
U: ~ = !turn!
%%topmargin 3cm
T:The Burying Poteen
B:Traditional Irish Fiddle Tunes. Randy Miller and Jack Perron.
Z:Transcribed by Ralph Palmer
S:Sean McGuire
R:Reel
L:1/8
M:C|
K:D
AG |: F4 E4 | DB, ~B,2 DB,A,C | B,E ~E2 FEDE | FABc dcdA |
FEDF EDFE | DB, ~B,2 DB,A,C | B,E ~E2 FEDE | FB{/c}BA B2 AG ::
{/G}FEFG A3 d | cdeg fedf | ((3baf) af eg{/g}fe | dfed B2 AG |
{/G}FDFG A3 d | cdeg fedf | af ~f2 dg{/g}fe | dfed B2 AG :|]
